apps/app.mento.org/public/tokens/AUDm.svg

<svg width="220" height="220" viewBox="0 0 220 220" fill="none" xmlns="http://www.w3.org/2000/svg">
<path d="M110 220C170.751 220 220 170.751 220 110C220 49.2487 170.751 0 110 0C49.2487 0 0 49.2487 0 110C0 170.751 49.2487 220 110 220Z" fill="#510DC1"/>
<path d="M110 23C158.049 23 197 61.9512 197 110C197 158.049 158.049 197 110 197C61.9512 197 23 158.049 23 110C23 61.9512 61.9512 23 110 23Z" fill="#D9D9D9" stroke="url(#paint0_linear_2057_395)" stroke-width="36"/>
<path d="M110 202C160.81 202 202 160.81 202 110C202 59.1898 160.81 18 110 18C59.1898 18 18 59.1898 18 110C18 160.81 59.1898 202 110 202Z" fill="#510DC1"/>
<path d="M141.598 156V145.907C126.747 144.549 116.911 136.3 116.525 121.451H129.351C129.64 130.283 134.944 133.97 141.598 135.038V114.561C125.879 111.359 118.358 105.633 118.358 93.4051C118.358 82.5359 127.519 74.7722 141.598 73.9958V64H148.927V74.0928C164.357 75.6456 171.782 84.5738 172.264 97.2869H159.728C159.342 90.2025 155.967 86.1266 148.927 84.962V103.886C168.696 107.671 174 114.173 174 124.848C174 137.658 163.778 145.228 148.927 146.004V156H141.598ZM131.666 93.0169C131.666 97.2869 133.208 99.9072 141.598 102.236V84.6709C135.523 85.3502 131.666 88.4557 131.666 93.0169ZM148.927 135.329C155.967 134.65 160.692 131.253 160.692 125.43C160.692 121.16 158.667 118.637 148.927 116.114V135.329Z" fill="url(#paint1_linear_2057_395)"/>
<path d="M101.16 144.942L95.3741 129.026H65.1903L59.4043 144.942H46L72.8086 75.0684H87.8523L114.95 144.942H101.16ZM69.2406 117.866H91.3239L80.3305 87.2962L69.2406 117.866Z" fill="url(#paint2_linear_2057_395)"/>
<defs>
<linearGradient id="paint0_linear_2057_395" x1="26.875" y1="18.125" x2="175.625" y2="193.125" gradientUnits="userSpaceOnUse">
<stop offset="0.201923" stop-color="#FF4B4B"/>
<stop offset="0.5" stop-color="#75ACFF"/>
</linearGradient>
<linearGradient id="paint1_linear_2057_395" x1="145.263" y1="64" x2="145.263" y2="156" gradientUnits="userSpaceOnUse">
<stop stop-color="#E2DBFF"/>
<stop offset="0.975962" stop-color="#FBFAFF"/>
</linearGradient>
<linearGradient id="paint2_linear_2057_395" x1="80.4751" y1="75.0684" x2="80.4751" y2="144.942" gradientUnits="userSpaceOnUse">
<stop stop-color="#E2DBFF"/>
<stop offset="0.975962" stop-color="#FBFAFF"/>
</linearGradient>
</defs>
</svg>

<svg xmlns="http://www.w3.org/2000/svg" width="220" height="220" fill="none" viewBox="0 0 220 220"><path fill="#510dc1" d="M110 220c60.751 0 110-49.249 110-110S170.751 0 110 0 0 49.249 0 110s49.249 110 110 110"/><path fill="#d9d9d9" stroke="url(#a)" stroke-width="36" d="M110 23c48.049 0 87 38.951 87 87s-38.951 87-87 87-87-38.951-87-87 38.951-87 87-87Z"/><path fill="#510dc1" d="M110 202c50.81 0 92-41.19 92-92s-41.19-92-92-92-92 41.19-92 92 41.19 92 92 92"/><path fill="url(#b)" d="M141.598 156v-10.093c-14.851-1.358-24.687-9.607-25.073-24.456h12.826c.289 8.832 5.593 12.519 12.247 13.587v-20.477c-15.719-3.202-23.24-8.928-23.24-21.156 0-10.87 9.161-18.633 23.24-19.41V64h7.329v10.093c15.43 1.553 22.855 10.48 23.337 23.194h-12.536c-.386-7.085-3.761-11.16-10.801-12.325v18.924C168.696 107.671 174 114.173 174 124.848c0 12.81-10.222 20.38-25.073 21.156V156zm-9.932-62.983c0 4.27 1.542 6.89 9.932 9.219V84.671c-6.075.68-9.932 3.785-9.932 8.346m17.261 42.312c7.04-.679 11.765-4.076 11.765-9.899 0-4.27-2.025-6.793-11.765-9.316z"/><path fill="url(#c)" d="m101.16 144.942-5.786-15.916H65.19l-5.786 15.916H46l26.809-69.874h15.043l27.098 69.874zm-31.92-27.076h22.084L80.33 87.296z"/><defs><linearGradient id="a" x1="26.875" x2="175.625" y1="18.125" y2="193.125" gradientUnits="userSpaceOnUse"><stop offset=".202" stop-color="#ff4b4b"/><stop offset=".5" stop-color="#75acff"/></linearGradient><linearGradient id="b" x1="145.263" x2="145.263" y1="64" y2="156" gradientUnits="userSpaceOnUse"><stop stop-color="#e2dbff"/><stop offset=".976" stop-color="#fbfaff"/></linearGradient><linearGradient id="c" x1="80.475" x2="80.475" y1="75.068" y2="144.942" gradientUnits="userSpaceOnUse"><stop stop-color="#e2dbff"/><stop offset=".976" stop-color="#fbfaff"/></linearGradient></defs></svg>
